svg/clockface/clockfacesquaresolid/clock_00_40.svg

<?xml version="1.0" encoding="UTF-8" standalone="no"?>
<svg
   height="1000"
   width="1000"
   version="1.1"
   viewBox="0 0 1000 1000"
   id="svg7"
   sodipodi:docname="clock_00_40.svg"
   xmlns:inkscape="http://www.inkscape.org/namespaces/inkscape"
   xmlns:sodipodi="http://sodipodi.sourceforge.net/DTD/sodipodi-0.dtd"
   xmlns="http://www.w3.org/2000/svg"
   xmlns:svg="http://www.w3.org/2000/svg">
  <defs
     id="defs11" />
  <sodipodi:namedview
     id="namedview9"
     pagecolor="#ffffff"
     bordercolor="#000000"
     borderopacity="0.25"
     inkscape:showpageshadow="2"
     inkscape:pageopacity="0.0"
     inkscape:pagecheckerboard="0"
     inkscape:deskcolor="#d1d1d1" />
  <path
     id="path15"
     style="color:#000000;fill:#000000;stroke-width:60;-inkscape-stroke:none"
     d="M 129 129 L 129 159 L 129 869 L 869 869 L 869 129 L 129 129 z M 500 320 A 30 30 0 0 1 530 350 L 530 500 A 30.003 30.003 0 0 1 515 525.98047 L 315.81445 640.98047 A 30 30 0 0 1 274.83398 630 A 30 30 0 0 1 271.07031 618.91602 A 30 30 0 0 1 285.81445 589.01953 L 470 482.67969 L 470 350 A 30 30 0 0 1 500 320 z " />
</svg>

<svg xmlns="http://www.w3.org/2000/svg" width="1000" height="1000"><path d="M129 129v740h740V129H129zm371 191a30 30 0 0 1 30 30v150a30.003 30.003 0 0 1-15 25.98l-199.186 115a30 30 0 0 1-40.98-10.98 30 30 0 0 1-3.764-11.084 30 30 0 0 1 14.744-29.896L470 482.68V350a30 30 0 0 1 30-30z" style="-inkscape-stroke:none" stroke-width="60"/></svg>
